Sources/FrostedUI/Resources/Icons.xcassets/logout12.imageset/logout-12.svg

<svg width="12" height="12" viewBox="0 0 12 12" fill="none" xmlns="http://www.w3.org/2000/svg" data-fui-icon="true">
  <path
    d="M4.06836 1.25C4.86389 1.25009 5.62692 1.56638 6.18945 2.12891L6.53027 2.46973C6.82317 2.76262 6.82317 3.23738 6.53027 3.53027C6.23738 3.82317 5.76262 3.82317 5.46973 3.53027L5.12891 3.18945C4.84768 2.90823 4.46606 2.75009 4.06836 2.75H3.25C2.42157 2.75 1.75 3.42157 1.75 4.25V7.75C1.75 8.57842 2.42158 9.25 3.25 9.25H4.06836C4.46606 9.24991 4.84768 9.09177 5.12891 8.81055L5.46973 8.46973C5.76262 8.17683 6.23738 8.17683 6.53027 8.46973C6.82317 8.76262 6.82317 9.23738 6.53027 9.53027L6.18945 9.87109C5.62692 10.4336 4.86389 10.7499 4.06836 10.75H3.25C1.59315 10.75 0.250002 9.40685 0.25 7.75V4.25C0.25 2.59315 1.59315 1.25 3.25 1.25H4.06836ZM8.75586 3.43555C9.06754 3.16283 9.54167 3.19426 9.81445 3.50586L11.5645 5.50586C11.8119 5.78863 11.8119 6.21137 11.5645 6.49414L9.81445 8.49414C9.54167 8.80574 9.06754 8.83717 8.75586 8.56445C8.44426 8.29167 8.41283 7.81754 8.68555 7.50586L9.34668 6.75H5C4.58579 6.75 4.25 6.41421 4.25 6C4.25 5.58579 4.58579 5.25 5 5.25H9.34668L8.68555 4.49414C8.41283 4.18246 8.44426 3.70833 8.75586 3.43555Z"
    fill="currentColor"
  />
</svg>

<svg xmlns="http://www.w3.org/2000/svg" width="12" height="12" fill="none" data-fui-icon="true" viewBox="0 0 12 12"><path fill="currentColor" d="M4.068 1.25a3 3 0 0 1 2.121.879l.341.34A.75.75 0 1 1 5.47 3.53l-.341-.34a1.5 1.5 0 0 0-1.06-.44H3.25a1.5 1.5 0 0 0-1.5 1.5v3.5a1.5 1.5 0 0 0 1.5 1.5h.818a1.5 1.5 0 0 0 1.06-.44l.342-.34a.75.75 0 1 1 1.06 1.06l-.34.341a3 3 0 0 1-2.122.879H3.25a3 3 0 0 1-3-3v-3.5a3 3 0 0 1 3-3zm4.688 2.186a.75.75 0 0 1 1.058.07l1.75 2a.75.75 0 0 1 0 .988l-1.75 2a.75.75 0 0 1-1.128-.988l.66-.756H5a.75.75 0 0 1 0-1.5h4.347l-.661-.756a.75.75 0 0 1 .07-1.058"/></svg>
